styles/1/Numix/64/places/grey-folder-hdd.svg

<?xml version="1.0" encoding="UTF-8" standalone="no"?>
<!-- Created with Inkscape (http://www.inkscape.org/) -->

<svg
   xmlns:dc="http://purl.org/dc/elements/1.1/"
   xmlns:cc="http://creativecommons.org/ns#"
   xmlns:rdf="http://www.w3.org/1999/02/22-rdf-syntax-ns#"
   xmlns:svg="http://www.w3.org/2000/svg"
   xmlns="http://www.w3.org/2000/svg"
   xmlns:sodipodi="http://sodipodi.sourceforge.net/DTD/sodipodi-0.dtd"
   xmlns:inkscape="http://www.inkscape.org/namespaces/inkscape"
   width="64"
   height="64"
   id="svg2"
   version="1.1"
   inkscape:version="0.91 r"
   sodipodi:docname="grey-folder-hdd.svg"
   inkscape:export-filename="/media/Data/Main/Visuals/Icons/Numix/Desktop/repos/numix-wiki/Gjorgi/Numix-folders/48/New/folder-144.png"
   inkscape:export-xdpi="270"
   inkscape:export-ydpi="270">
  <defs
     id="defs4" />
  <sodipodi:namedview
     id="base"
     pagecolor="#ffffff"
     bordercolor="#666666"
     borderopacity="1.0"
     inkscape:pageopacity="0.0"
     inkscape:pageshadow="2"
     inkscape:zoom="10.551073"
     inkscape:cx="40.905891"
     inkscape:cy="31.07385"
     inkscape:document-units="px"
     inkscape:current-layer="layer1"
     showgrid="true"
     inkscape:window-width="1280"
     inkscape:window-height="998"
     inkscape:window-x="0"
     inkscape:window-y="0"
     inkscape:window-maximized="1"
     showguides="true"
     inkscape:guide-bbox="true">
    <inkscape:grid
       type="xygrid"
       id="grid2985"
       empspacing="5"
       visible="true"
       enabled="true"
       snapvisiblegridlinesonly="true" />
  </sodipodi:namedview>
  <metadata
     id="metadata7">
    <rdf:RDF>
      <cc:Work
         rdf:about="">
        <dc:format>image/svg+xml</dc:format>
        <dc:type
           rdf:resource="http://purl.org/dc/dcmitype/StillImage" />
        <dc:title />
      </cc:Work>
    </rdf:RDF>
  </metadata>
  <g
     inkscape:label="Layer 1"
     inkscape:groupmode="layer"
     id="layer1"
     transform="translate(0,-988.3622)">
    <path
       style="font-size:medium;font-style:normal;font-variant:normal;font-weight:normal;font-stretch:normal;text-indent:0;text-align:start;text-decoration:none;line-height:normal;letter-spacing:normal;word-spacing:normal;text-transform:none;direction:ltr;block-progression:tb;writing-mode:lr-tb;text-anchor:start;baseline-shift:baseline;color:#000000;fill:#bdbdbd;fill-opacity:1;fill-rule:nonzero;stroke:none;stroke-width:2.28612947;marker:none;visibility:visible;display:inline;overflow:visible;enable-background:accumulate;font-family:Sans;-inkscape-font-specification:Sans"
       d="M 6.0625 10 C 4.9330852 10.1109 3.9815877 11.17777 4 12.3125 L 4 51.6875 C 3.986 52.9021 5.097925 54.0139 6.3125 54 L 57.6875 54 C 58.902076 54.014 60.013966 52.9021 60 51.6875 L 60 16.3125 C 60.014 15.0979 58.902076 13.9861 57.6875 14 L 38 14 L 38 12.3125 C 38.01375 11.11867 36.943717 10.019 35.75 10 L 6.3125 10 C 6.22925 10 6.14575 9.9999 6.0625 10 z M 24 22 L 40 22 C 41.424572 22 42 22.6704 42 24 L 42 44 C 42 45.3296 40.862072 46 39.4375 46 L 24 46 C 22.57543 46 22 45.3296 22 44 L 22 24 C 22 22.6704 22.57543 22 24 22 z M 25.5 24 C 24.671573 24 24 24.6716 24 25.5 C 24 26.3284 24.671573 27 25.5 27 C 26.328427 27 27 26.3284 27 25.5 C 27 24.6716 26.328427 24 25.5 24 z M 38.5 24 C 37.671573 24 37 24.6716 37 25.5 C 37 26.3284 37.671573 27 38.5 27 C 39.328427 27 40 26.3284 40 25.5 C 40 24.6716 39.328427 24 38.5 24 z M 32 26 C 29.790862 26 28 27.7908 28 30 C 28 32.2092 29.790862 34 32 34 C 34.209138 34 36 32.2092 36 30 C 36 27.7908 34.209138 26 32 26 z M 32 28 C 33.104569 28 34 28.895431 34 30 C 34 31.104569 33.104569 32 32 32 C 30.895431 32 30 31.104569 30 30 C 30 28.895431 30.895431 28 32 28 z M 25.5 33 C 24.671573 33 24 33.6716 24 34.5 C 24 35.3284 24.671573 36 25.5 36 C 26.328427 36 27 35.3284 27 34.5 C 27 33.6716 26.328427 33 25.5 33 z M 38.5 33 C 37.671573 33 37 33.6716 37 34.5 C 37 35.3284 37.671573 36 38.5 36 C 39.328427 36 40 35.3284 40 34.5 C 40 33.6716 39.328427 33 38.5 33 z M 25 42 C 24.446 42 24 42.446 24 43 C 24 43.554 24.446 44 25 44 L 39 44 C 39.554 44 40 43.554 40 43 C 40 42.446 39.554 42 39 42 L 25 42 z "
       transform="translate(0,988.3622)"
       id="path3912" />
  </g>
</svg>

<!-- Created with Inkscape (http://www.inkscape.org/) -->
<svg xmlns="http://www.w3.org/2000/svg" viewBox="0 0 64 64">
 <g transform="translate(0,-988.3622)">
  <path d="m 6.06 10 c -1.129 0.111 -2.081 1.178 -2.063 2.313 l 0 39.38 c -0.014 1.215 1.098 2.326 2.313 2.313 l 51.38 0 c 1.215 0.014 2.326 -1.098 2.313 -2.313 l 0 -35.37 c 0.014 -1.215 -1.098 -2.326 -2.313 -2.313 l -19.688 0 l 0 -1.688 c 0.014 -1.194 -1.056 -2.294 -2.25 -2.313 l -29.438 0 c -0.083 0 -0.167 0 -0.25 0 z m 17.938 12 l 16 0 c 1.425 0 2 0.67 2 2 l 0 20 c 0 1.33 -1.138 2 -2.563 2 l -15.438 0 c -1.425 0 -2 -0.67 -2 -2 l 0 -20 c 0 -1.33 0.575 -2 2 -2 z m 1.5 2 c -0.828 0 -1.5 0.672 -1.5 1.5 c 0 0.828 0.672 1.5 1.5 1.5 c 0.828 0 1.5 -0.672 1.5 -1.5 c 0 -0.828 -0.672 -1.5 -1.5 -1.5 z m 13 0 c -0.828 0 -1.5 0.672 -1.5 1.5 c 0 0.828 0.672 1.5 1.5 1.5 c 0.828 0 1.5 -0.672 1.5 -1.5 c 0 -0.828 -0.672 -1.5 -1.5 -1.5 z m -6.5 2 c -2.209 0 -4 1.791 -4 4 c 0 2.209 1.791 4 4 4 c 2.209 0 4 -1.791 4 -4 c 0 -2.209 -1.791 -4 -4 -4 z m 0 2 c 1.105 0 2 0.895 2 2 c 0 1.105 -0.895 2 -2 2 c -1.105 0 -2 -0.895 -2 -2 c 0 -1.105 0.895 -2 2 -2 z m -6.5 5 c -0.828 0 -1.5 0.672 -1.5 1.5 c 0 0.828 0.672 1.5 1.5 1.5 c 0.828 0 1.5 -0.672 1.5 -1.5 c 0 -0.828 -0.672 -1.5 -1.5 -1.5 z m 13 0 c -0.828 0 -1.5 0.672 -1.5 1.5 c 0 0.828 0.672 1.5 1.5 1.5 c 0.828 0 1.5 -0.672 1.5 -1.5 c 0 -0.828 -0.672 -1.5 -1.5 -1.5 z m -13.5 9 c -0.554 0 -1 0.446 -1 1 c 0 0.554 0.446 1 1 1 l 14 0 c 0.554 0 1 -0.446 1 -1 c 0 -0.554 -0.446 -1 -1 -1 l -14 0 z" transform="translate(0,988.3622)" style="visibility:visible;fill:#bdbdbd;fill-opacity:1;stroke:none;display:inline;color:#000;fill-rule:nonzero"/>
 </g>
</svg>
